-----BEGIN PGP MESSAGE-----

jA0ECQMKcizTler+3c3/0ukBkRVJPCHrZZRWtjG5KmjCXGcSLPcFx29O6ZPsoaGL
2eCoz9lCM6mrLi43GPp5Lp6LB/jJ399BFGiCikJ/pjNN0+IFqYG3xU07xUe8kxaB
uNnVlcOEOixpMrOCh6YRcvNY7Gw0N8vEVzWaMQMeDF4uZbBc6tpOaVKdDM9FocMY
7CtvlDMJcExf90JqPXsEaWNem3L9BY2UH0syy2nV84HPUwpT1M9Ei7mOrcJDqvtL
VsECLs0cIAxVfsh3T9Td5fqUzVGJXQcITt91LGPy4iOmBCUY8SXMrUn/7JJZxiuB
9QL30OjUHWRsE649T6OUyZLAaE2D3JoiaU9utWfyJqK3+CVBWm4c2H183WqSlzQg
VkSQvX1aXBHjmQDi0wHdVhRTff6BsBc7GzlVuOHCE3UrgD4VoKL6X/p05OuU9NBF
X9/ZawxVK2ZpJJs93sIhjvD+vza0hS3pvQJyRSD6Z27veHmnViRuSOX0ZnrwIIol
opD1io/6K8nIOY517FBhmXK6NbpxRoiB8r1PHaaHnQSBJFpK6oogZEVCNyVPRFmM
DeHZC3Zi6Ci59R/vQMuNngjBX2x/g8/515qn2TWc9tC3jHNFYYhRuU5d3pZzAbWF
uVbycM7KOIV5vB9K/CXS3HctNtRzN9LCbNyqJGhEMCem71Q+zF36ul2ODLklAVwL
oQmdRpUzQoAQI8E=
=90SP
-----END PGP MESSAGE-----
