-----BEGIN PGP MESSAGE-----

jA0ECQMKKKN020WZe0n/0sDmATnjopSvXPm2lO1MEx0hn7K2ohF+xrpxA6+0b0Vh
ohEfarTzASE56aJrOhXnHUO2j/92X+BLTtQdzYjlbtwdoKT3i83s5errsHICi2Sr
4Qp2MNzJHCPWxh7CqDdZER45CSLHPGMUMCWsYHl6B4jnrKis+u68Zf+ZuUmvRJC5
AULubi/EgdFhNt5oAgqugOKxbXZurGXqqRfxpe1HG33IBzlAvt/BfvMlwdSXyYDx
j8LSp8BzOopBI4Stv60EjBAeX9TaS+w4QbFSedHqEc59Apq9qKKgbEypZqq0J/Ee
vH+2bqb9Nwzpv/pEcwAG53GQOxi3BkjCSgu5o9SQyUshC52JSpNnn3DNRmSJGHhB
g5E6V1jsH1kc3jra1XE+3q7owh77q7TOJEzr0kXm+AcWlR4LeB0Tt38PnYkabXSc
cHN0+dsIWvVNXHmYz+U2PdZQG5+Kwra4UYez9gJb1DonVAAnqRyH1DqenAzKvib0
pFbqSgwRQDZ5fiMHbJiMgtAFt0kho0D46zqr/nsMWbOOHMXohjjfFi90DhQF5qn4
fg6b8wHA/QU=
=8Ffc
-----END PGP MESSAGE-----
